X:6
T:Saint Anne's Reel
R:reel
O:Canada
M:C
L:1/8
K:D
e2 | "D" fedf "A" fedB | "D" A2 F(A A)DFA | "G" B2   GB   DBGB | "D" A2 F(A  A)DFA |
     "D" fedf "A" fedB | "D" A2 F(A A)DFA | "G" B2 ed "A" cABc | "D" eddc       d2 :|
ag | "D" fdfa     fdfa | "G" aggf  g2  gf | "A" edcB      ABce | "D"  baa^g a2 a=g |  
     "D" fdfa     fdfa | "G" aggf  g2  gf | "A" edcB  "A" Aceg | "D" fdec       d2 :|
